X: 11
I: linebreak $
T: Ingrata
N: 
N: Drone: F/C
K: F major
M: 6/8
L: 1/8
P: A
"^Saltarello"F2G AB2 | c2c de2 | f2e dc2 | B2B AG2 | F3 F3 :| 
M: 4/4
P: B
"^Quadernaria"f2fg f2f2 | ed/c/de c2c2 | 
M: 2/4
AA BB || 
M: 6/8
P: C
"^Saltarello"c2A GF2 | E2A AB2 | c2A GF2 | E2A AB2 || 
M: 6/4
P: D
"^Bassadanza"c6 c6 | f6 f6 | c6 B6 | A6 A6 | B4A4G4 | F6 F6 |: 
P: E
A6 B6 | c6 c4A2 | B4A4G4 | F6 F6 :| 
P: F
f6 f6 | f6 f6 |: 
M: 6/8
P: G (3x)
"^Piva"A2G A2B | c2d c2B | A3 A3 "^(3)":| 
P: H
A2A GF2 | E3 E3 | A2G A2B | 
c3 c3 | B2A B2G | F3 F3 |] 
